src/assets/img/Tasks.svg

<svg width="24" height="24" viewBox="0 0 24 24" fill="none" xmlns="http://www.w3.org/2000/svg">
<path d="M9.00003 5.99999H20M3.80005 5.79998L4.60005 6.59997L6.60004 4.59998M3.80005 11.8L4.60005 12.6L6.60004 10.6M3.80005 17.8L4.60005 18.6L6.60004 16.6M9.00003 12H20M9.00003 18H20" stroke="white" stroke-width="1.5" stroke-linecap="round" stroke-linejoin="round"/>
</svg>

<svg xmlns="http://www.w3.org/2000/svg" width="24" height="24" fill="none"><path stroke="#fff" stroke-linecap="round" stroke-linejoin="round" stroke-width="1.5" d="M9 6h11M3.8 5.8l.8.8 2-2m-2.8 7.2.8.8 2-2m-2.8 7.2.8.8 2-2M9 12h11M9 18h11"/></svg>
